icons/svg/vk-box.svg

﻿<?xml version="1.0" encoding="utf-8"?>
<!DOCTYPE svg PUBLIC "-//W3C//DTD SVG 1.1//EN" "http://www.w3.org/Graphics/SVG/1.1/DTD/svg11.dtd">
<svg xmlns="http://www.w3.org/2000/svg" xmlns:xlink="http://www.w3.org/1999/xlink" version="1.1" baseProfile="full" width="24" height="24" viewBox="0 0 24.00 24.00" enable-background="new 0 0 24.00 24.00" xml:space="preserve">
	<path fill="#000000" fill-opacity="1" stroke-width="0.2" stroke-linejoin="round" d="M 5,3L 19,3C 20.1046,3 21,3.89543 21,5L 21,19C 21,20.1046 20.1046,21 19,21L 5,21C 3.89543,21 3,20.1046 3,19L 3,5C 3,3.89543 3.89543,3 5,3 Z M 17.2365,14.0269C 16.0621,12.9373 16.2199,13.1138 17.6368,11.2226C 18.4997,10.0748 18.8468,9.37367 18.7393,9.0739C 18.6348,8.78893 17.9997,8.8619 17.9997,8.8619L 15.8885,8.87669C 15.8885,8.87669 15.7308,8.85401 15.6154,8.92303C 15.503,8.99304 15.43,9.15082 15.43,9.15082C 15.43,9.15082 15.0948,10.0403 14.652,10.7956C 13.7123,12.394 13.3346,12.4749 13.1808,12.3782C 12.8258,12.1475 12.9145,11.4503 12.9145,10.9534C 12.9145,9.40818 13.1502,8.76132 12.456,8.59566C 12.2292,8.54241 12.0596,8.50297 11.4739,8.50001C 10.7196,8.49212 10.0835,8.50001 9.72165,8.67651C 9.47908,8.79583 9.2937,9.05812 9.41005,9.0739C 9.5481,9.08869 9.86463,9.1587 10.0303,9.3855C 10.2492,9.67836 10.2413,10.341 10.2413,10.341C 10.2413,10.341 10.3646,12.1593 9.94845,12.3861C 9.66347,12.5399 9.27496,12.2244 8.43877,10.7759C 8.00786,10.0363 7.68443,9.2159 7.68443,9.2159L 7.51088,8.97727L 7.18745,8.84612L 5.18079,8.85401C 5.18079,8.85401 4.88004,8.85006 4.76861,8.98121C 4.67198,9.10053 4.76073,9.32042 4.76073,9.32042C 4.76073,9.32042 6.33252,12.9561 8.10745,14.8049C 9.73743,16.504 11.5903,16.3107 11.5903,16.3107L 12.4294,16.3107C 12.4294,16.3107 12.6799,16.3649 12.811,16.2269C 12.9303,16.0997 12.9264,15.9379 12.9264,15.9379C 12.9264,15.9379 12.9106,14.8128 13.4313,14.6472C 13.947,14.4815 14.6096,15.7338 15.3107,16.215C 15.8383,16.5769 16.2425,16.5 16.2425,16.5L 18.119,16.4734C 18.119,16.4734 19.0972,16.4113 18.6308,15.6411C 18.5963,15.5751 18.3616,15.0712 17.2365,14.0269 Z "/>
</svg>

<svg xmlns="http://www.w3.org/2000/svg" version="1.1" baseProfile="full" width="24" height="24" viewBox="0 0 24.00 24.00" xml:space="preserve"><path fill="#000" fill-opacity="1" stroke-width=".2" stroke-linejoin="round" d="M5 3h14c1.105 0 2 .895 2 2v14c0 1.105-.895 2-2 2H5c-1.105 0-2-.895-2-2V5c0-1.105.895-2 2-2zm12.236 11.027c-1.174-1.09-1.016-.913.4-2.804.864-1.148 1.21-1.85 1.103-2.15-.105-.284-.74-.21-.74-.21l-2.11.014c-.002 0-.16-.023-.275.046-.112.07-.185.228-.185.228s-.335.89-.778 1.646c-.94 1.598-1.317 1.68-1.47 1.582-.356-.23-.268-.928-.268-1.425 0-1.545.236-2.192-.458-2.357-.227-.054-.396-.093-.982-.096-.754-.008-1.39 0-1.752.177-.243.12-.428.38-.312.397.138.015.455.085.62.312.22.292.21.955.21.955s.125 1.82-.292 2.046c-.285.154-.673-.162-1.51-1.61-.43-.74-.754-1.56-.754-1.56l-.173-.24-.323-.13-2.006.008s-.3-.004-.41.127c-.098.12-.01.34-.01.34s1.573 3.636 3.347 5.485c1.63 1.7 3.483 1.506 3.483 1.506h.84s.25.055.38-.083c.12-.127.116-.29.116-.29s-.015-1.124.505-1.29c.517-.165 1.18 1.087 1.88 1.568.528.362.932.285.932.285l1.877-.027s.977-.062.51-.832c-.034-.065-.268-.57-1.393-1.613z"/></svg>
